X: 21659
T: Killourhy Brothers, The
R: reel
M: 4/4
K: Dmajor
|:A,B,CD F3 d|FEED EDB,D|A,B,DF A2 fA|BAdF E2 DB,|
A,B,DE F3 B|Adgd efaf|dF F2 DB,A,B,|1 DEFA B d3:|2 DEFA B d2||
|:e|fdad gbag|f2 ed dBAD|FAge dfbg|feed efga|
bf f2 dAFA|Be (3eee bgec|AF F2 DB,A,B,|DEF AB d3:|
|:A|d2 fd dBAd|fgaf bgeg|fgaf dfeg|faba gece|
Ad d2 dBAf|a2 gb afda|bged (3Bcd gd|cAGE D3:|

